static/card-icons/email-group.svg

<svg height="682.66669" viewBox="0 0 682.66669 682.66669" width="682.66669" xmlns="http://www.w3.org/2000/svg"><g style="fill:none;stroke:#000;stroke-width:30;stroke-linecap:round;stroke-linejoin:round;stroke-miterlimit:10" transform="matrix(1.3333333 0 0 -1.3333333 0 682.66667)"><path d="m0 0c-44.183 0-80-35.817-80-80h160c0 44.183-35.817 80-80 80z" transform="translate(95 95)"/><path d="m0 0c-44.183 0-80-35.817-80-80h160c0 44.183-35.817 80-80 80z" transform="translate(417 95)"/><path d="m0 0c0-22.091-17.909-40-40-40s-40 17.909-40 40 17.909 40 40 40 40-17.909 40-40z" transform="translate(135 135)"/><path d="m0 0c0-22.091-17.908-40-40-40s-40 17.909-40 40 17.908 40 40 40 40-17.909 40-40z" transform="translate(457 135)"/><path d="m396 317h-280v180h280z"/><path d="m0 0 130-100h20l130 100" transform="translate(116 497)"/><path d="m0 0-40 40 40 40" transform="translate(196 177)"/><path d="m0 0h-200" transform="translate(356 217)"/><path d="m0 0 40 40-40 40" transform="translate(316 177)"/><path d="m0 0 118.481 88.86" transform="translate(116 317)"/><path d="m0 0 118.48-88.86" transform="translate(277.5195 405.8604)"/></g></svg>

<?xml version="1.0" encoding="UTF-8" standalone="no"?>
<!-- Created with Inkscape (http://www.inkscape.org/) -->

<svg
   version="1.1"
   id="svg1674"
   xml:space="preserve"
   width="682.66669"
   height="682.66669"
   viewBox="0 0 682.66669 682.66669"
   xmlns="http://www.w3.org/2000/svg"
   xmlns:svg="http://www.w3.org/2000/svg"><defs
     id="defs1678"><clipPath
       clipPathUnits="userSpaceOnUse"
       id="clipPath1688"><path
         d="M 0,512 H 512 V 0 H 0 Z"
         id="path1686" /></clipPath></defs><g
     id="g1680"
     transform="matrix(1.3333333,0,0,-1.3333333,0,682.66667)"><g
       id="g1682"><g
         id="g1684"
         clipPath="url(#clipPath1688)"><g
           id="g1690"
           transform="translate(95,95)"><path
             d="M 0,0 V 0 C -44.183,0 -80,-35.817 -80,-80 H 80 C 80,-35.817 44.183,0 0,0 Z"
             style="fill:none;stroke:#000000;stroke-width:30;stroke-linecap:round;stroke-linejoin:round;stroke-miterlimit:10;stroke-dasharray:none;stroke-opacity:1"
             id="path1692" /></g><g
           id="g1694"
           transform="translate(417,95)"><path
             d="M 0,0 V 0 C -44.183,0 -80,-35.817 -80,-80 H 80 C 80,-35.817 44.183,0 0,0 Z"
             style="fill:none;stroke:#000000;stroke-width:30;stroke-linecap:round;stroke-linejoin:round;stroke-miterlimit:10;stroke-dasharray:none;stroke-opacity:1"
             id="path1696" /></g><g
           id="g1698"
           transform="translate(135,135)"><path
             d="m 0,0 c 0,-22.091 -17.909,-40 -40,-40 -22.091,0 -40,17.909 -40,40 0,22.091 17.909,40 40,40 C -17.909,40 0,22.091 0,0 Z"
             style="fill:none;stroke:#000000;stroke-width:30;stroke-linecap:round;stroke-linejoin:round;stroke-miterlimit:10;stroke-dasharray:none;stroke-opacity:1"
             id="path1700" /></g><g
           id="g1702"
           transform="translate(457,135)"><path
             d="m 0,0 c 0,-22.091 -17.908,-40 -40,-40 -22.092,0 -40,17.909 -40,40 0,22.091 17.908,40 40,40 C -17.908,40 0,22.091 0,0 Z"
             style="fill:none;stroke:#000000;stroke-width:30;stroke-linecap:round;stroke-linejoin:round;stroke-miterlimit:10;stroke-dasharray:none;stroke-opacity:1"
             id="path1704" /></g><path
           d="M 396,317 H 116 v 180 h 280 z"
           style="fill:none;stroke:#000000;stroke-width:30;stroke-linecap:round;stroke-linejoin:round;stroke-miterlimit:10;stroke-dasharray:none;stroke-opacity:1"
           id="path1706" /><g
           id="g1708"
           transform="translate(116,497)"><path
             d="m 0,0 130,-100 h 20 L 280,0"
             style="fill:none;stroke:#000000;stroke-width:30;stroke-linecap:round;stroke-linejoin:round;stroke-miterlimit:10;stroke-dasharray:none;stroke-opacity:1"
             id="path1710" /></g><g
           id="g1712"
           transform="translate(196,177)"><path
             d="M 0,0 -40,40 0,80"
             style="fill:none;stroke:#000000;stroke-width:30;stroke-linecap:round;stroke-linejoin:round;stroke-miterlimit:10;stroke-dasharray:none;stroke-opacity:1"
             id="path1714" /></g><g
           id="g1716"
           transform="translate(356,217)"><path
             d="M 0,0 H -200"
             style="fill:none;stroke:#000000;stroke-width:30;stroke-linecap:round;stroke-linejoin:round;stroke-miterlimit:10;stroke-dasharray:none;stroke-opacity:1"
             id="path1718" /></g><g
           id="g1720"
           transform="translate(316,177)"><path
             d="M 0,0 40,40 0,80"
             style="fill:none;stroke:#000000;stroke-width:30;stroke-linecap:round;stroke-linejoin:round;stroke-miterlimit:10;stroke-dasharray:none;stroke-opacity:1"
             id="path1722" /></g><g
           id="g1724"
           transform="translate(116,317)"><path
             d="M 0,0 118.481,88.86"
             style="fill:none;stroke:#000000;stroke-width:30;stroke-linecap:round;stroke-linejoin:round;stroke-miterlimit:10;stroke-dasharray:none;stroke-opacity:1"
             id="path1726" /></g><g
           id="g1728"
           transform="translate(277.5195,405.8604)"><path
             d="M 0,0 118.48,-88.86"
             style="fill:none;stroke:#000000;stroke-width:30;stroke-linecap:round;stroke-linejoin:round;stroke-miterlimit:10;stroke-dasharray:none;stroke-opacity:1"
             id="path1730" /></g></g></g></g></svg>
